X: 611
T:Johnny Cronin's
T:Galtee Ranger
M:4/4
L:1/8
N:Posted to the woodenflute mailing list December 2002
Z:Andrew Pickering
K:D
AFFE FEDE|F2 FE F2 dB|AFFE FEDE|FABA FE E2
AFFE FEDE|F2 FE F2 dB|AFFE FEDE|F2 EF D4||
AFAB AF F2|ABdf efde|fedc BcdB|ABde fedB|
A3 B AF F2|ABdf ef d2|fedc BcdB|ABde fedB||

